assets/static/logos/kunisports-inverse.svg

<svg width="700" height="700" viewBox="0 0 700 700" fill="none" xmlns="http://www.w3.org/2000/svg">
<g clip-path="url(#clip0_486_26065)">
<path d="M397.194 265.668L330.063 329.279C325.503 333.595 328.738 340.981 335.174 340.981H403.299C405.474 340.981 407.561 340.153 409.128 338.651L486.152 265.657H397.183L397.194 265.668Z" fill="white"/>
<path d="M241.105 350L164.457 422.63C159.898 426.946 163.132 434.332 169.568 434.332H241.083L328.429 351.557C329.025 350.994 328.627 350 327.81 350H241.105Z" fill="white"/>
<path d="M241.105 265.668L164.457 338.298C159.898 342.615 163.132 350 169.568 350H241.083L330.073 265.668H241.105Z" fill="white"/>
<path d="M397.194 434.332L330.063 370.721C325.503 366.405 328.738 359.019 335.174 359.019H403.299C405.474 359.019 407.561 359.847 409.128 361.349L486.152 434.343H397.183L397.194 434.332Z" fill="white"/>
<path d="M515.793 265.668H514.689C514.689 278.342 504.378 288.653 491.705 288.653V289.757C504.378 289.757 514.689 300.068 514.689 312.741H515.793C515.793 300.068 526.104 289.757 538.778 289.757V288.653C526.104 288.653 515.793 278.342 515.793 265.668Z" fill="white"/>
<path d="M597.486 102.514C531.381 36.4087 443.483 0 350 0C256.517 0 168.619 36.4087 102.514 102.514C36.4087 168.619 0 256.517 0 350C0 443.483 36.4087 531.381 102.514 597.486C168.619 663.591 256.517 700 350 700C443.483 700 531.381 663.591 597.486 597.486C663.591 531.381 700 443.483 700 350C700 256.517 663.591 168.619 597.486 102.514ZM105.638 105.649C170.915 40.3719 257.698 4.42689 350 4.42689C442.302 4.42689 529.085 40.3719 594.351 105.638C659.098 170.385 694.966 256.307 695.54 347.781H613.571C612.997 278.198 585.652 212.866 536.393 163.596C486.604 113.807 420.411 86.385 350 86.385C279.589 86.385 213.396 113.807 163.607 163.596C114.337 212.866 86.9922 278.198 86.4292 347.781H4.46C5.03406 256.307 40.9018 170.385 105.649 105.638M609.177 349.989C609.177 419.218 582.218 484.297 533.269 533.247C484.319 582.196 419.229 609.155 350.011 609.155C280.793 609.155 215.703 582.196 166.753 533.247C117.804 484.297 90.845 419.207 90.845 349.989C90.845 280.771 117.804 215.681 166.753 166.731C215.703 117.782 280.793 90.8229 350.011 90.8229C419.229 90.8229 484.319 117.782 533.269 166.731C582.218 215.681 609.177 280.771 609.177 349.989ZM594.362 594.34C529.096 659.606 442.313 695.551 350.011 695.551C257.709 695.551 170.926 659.606 105.66 594.34C40.9018 529.604 5.02303 443.693 4.46 352.219H86.4292C87.0032 421.802 114.348 487.134 163.607 536.404C213.396 586.193 279.589 613.615 350 613.615C420.411 613.615 486.604 586.193 536.393 536.404C585.663 487.134 613.008 421.802 613.571 352.219H695.54C694.966 443.693 659.098 529.615 594.351 594.362" fill="white"/>
<path d="M140.965 151.773L135.644 158.529L116.28 158.794L103.883 174.558L115.706 183.865L111.268 189.495L83.1172 167.339L87.5441 161.708L98.8045 170.573L110.992 155.085L107.493 136.372L112.803 129.616L117.02 152.071L140.965 151.773Z" fill="white"/>
<path d="M181.58 108.773C181.58 108.773 185.863 113.598 180.73 117.859L152.038 141.638C147.07 145.756 142.952 140.788 142.952 140.788L124.207 118.168L129.727 113.598L148.472 136.218L176.06 113.355L157.315 90.7346L162.834 86.1642L181.58 108.784V108.773Z" fill="white"/>
<path d="M187.685 70.9737L228.796 80.534L216.399 56.28L222.78 53.0233L239.096 84.9278L232.715 88.1845L191.604 78.6241L204.001 102.867L197.62 106.135L181.304 74.2304L187.685 70.9737Z" fill="white"/>
<path d="M249.123 44.0782L242.334 46.3694L253.79 80.3118L260.579 78.0207L249.123 44.0782Z" fill="white"/>
<path d="M321.705 49.2036L323.185 57.671C323.185 57.671 324.3 64.0187 317.234 65.2552L274.886 72.6738L273.771 66.326L316.119 58.9074L314.64 50.44L279.357 56.6222C272.303 57.8586 271.188 51.5108 271.188 51.5108L269.83 43.75C269.83 43.75 268.715 37.4022 275.781 36.1658L317.422 28.8796L318.537 35.2274L276.896 42.5136L278.254 50.2744L313.536 44.0922C320.59 42.8558 321.705 49.2146 321.705 49.2146" fill="white"/>
<path d="M389.93 36.2651L389.378 47.7132C389.378 47.7132 389.069 54.1604 381.915 53.8071L346.136 52.096L345.584 63.544L338.43 63.2018L340.142 27.4224L383.086 29.4758C390.239 29.818 389.93 36.2651 389.93 36.2651ZM346.986 34.2118L346.434 45.6599L382.214 47.371L382.766 35.9229L346.986 34.2118Z" fill="white"/>
<path d="M457.228 52.7694L451.101 74.8707C451.101 74.8707 449.379 81.086 442.468 79.1651L407.936 69.5937C401.036 67.6839 402.758 61.4686 402.758 61.4686L408.885 39.3673C408.885 39.3673 410.608 33.152 417.518 35.0618L452.05 44.6332C458.95 46.5541 457.228 52.7583 457.228 52.7583M415.796 41.2661L409.669 63.3674L444.201 72.9388L450.328 50.8374L415.807 41.2661H415.796Z" fill="white"/>
<path d="M500.867 107.139L498.748 92.9646L474.162 79.6839L468.709 89.7742L462.405 86.3629L479.439 54.8338L517.272 75.2681C523.576 78.6793 520.507 84.3537 520.507 84.3537L515.053 94.4439C515.053 94.4439 511.984 100.118 505.681 96.7181L507.8 110.893L500.867 107.151V107.139ZM514.203 80.9425L482.674 63.9083L477.22 73.9985L508.75 91.0327L514.203 80.9425Z" fill="white"/>
<path d="M571.587 125.333L555.149 111.478L536.205 133.944L530.729 129.329L549.662 106.863L533.224 93.0088L537.386 88.0741L575.738 120.409L571.587 125.333Z" fill="white"/>
<path d="M601.803 184.869L595.013 190.146C595.013 190.146 589.924 194.11 585.519 188.457L559.112 154.533L564.202 150.569L590.619 184.494L597.398 179.217L575.385 150.945C570.98 145.292 576.069 141.329 576.069 141.329L582.284 136.483C582.284 136.483 587.374 132.52 591.779 138.172L617.755 171.534L612.665 175.497L586.689 142.135L580.474 146.981L602.487 175.254C606.892 180.906 601.803 184.869 601.803 184.869Z" fill="white"/>
<path d="M109.513 566.895L104.291 560.062L108.873 541.25L96.6959 525.298L84.729 534.428L80.3904 528.731L108.873 506.994L113.222 512.691L101.829 521.39L113.774 537.055L132.773 538.325L137.995 545.169L115.198 543.635L109.513 566.895Z" fill="white"/>
<path d="M163.044 606.152C163.044 606.152 159.015 611.197 153.947 606.87L125.62 582.671C120.718 578.487 124.902 573.574 124.902 573.574L143.99 551.241L149.443 555.9L130.356 578.233L157.601 601.505L176.689 579.171L182.143 583.819L163.055 606.152H163.044Z" fill="white"/>
<path d="M200.292 594.969L216.023 634.138L228.785 610.082L235.111 613.438L218.33 645.1L211.994 641.733L196.262 602.575L183.512 626.631L177.175 623.275L193.966 591.613L200.292 594.969Z" fill="white"/>
<path d="M249.71 618.273L237.734 652.035L244.487 654.43L256.463 620.668L249.71 618.273Z" fill="white"/>
<path d="M316.119 656.029L314.508 664.475C314.508 664.475 313.304 670.811 306.261 669.464L264.023 661.417L265.227 655.08L307.464 663.128L309.076 654.682L273.882 647.981C266.839 646.646 268.053 640.309 268.053 640.309L269.532 632.57C269.532 632.57 270.736 626.233 277.779 627.58L319.31 635.496L318.107 641.832L276.575 633.928L275.096 641.667L310.29 648.368C317.334 649.715 316.119 656.04 316.119 656.04" fill="white"/>
<path d="M384.433 641.457L384.808 652.916C384.808 652.916 385.018 659.363 377.853 659.595L342.04 660.765L342.416 672.224L335.251 672.456L334.081 636.644L377.058 635.242C384.223 635.01 384.433 641.457 384.433 641.457ZM341.455 642.859L341.831 654.318L377.643 653.148L377.268 641.689L341.455 642.859Z" fill="white"/>
<path d="M446.928 626.664L452.724 648.853C452.724 648.853 454.357 655.091 447.425 656.901L412.76 665.965C405.827 667.775 404.193 661.538 404.193 661.538L398.398 639.348C398.398 639.348 396.764 633.111 403.697 631.3L438.361 622.237C445.294 620.427 446.928 626.664 446.928 626.664ZM405.331 637.538L411.126 659.727L445.791 650.664L439.995 628.474L405.331 637.538Z" fill="white"/>
<path d="M513.718 626.929L500.79 620.736L476.006 633.652L481.305 643.819L474.946 647.131L458.387 615.348L496.518 595.477C502.877 592.165 505.857 597.884 505.857 597.884L511.156 608.051C511.156 608.051 514.137 613.77 507.778 617.081L520.706 623.275L513.718 626.918V626.929ZM499.51 601.206L467.726 617.766L473.026 627.933L504.809 611.374L499.51 601.206Z" fill="white"/>
<path d="M553.637 560.272L536.989 573.883L555.591 596.625L550.049 601.162L531.447 578.421L514.81 592.033L510.726 587.032L549.552 555.282L553.637 560.272Z" fill="white"/>
<path d="M603.712 522.571L610.413 527.959C610.413 527.959 615.436 531.999 610.954 537.585L584.04 571.112L579.006 567.072L605.92 533.545L599.219 528.168L576.787 556.099C572.305 561.685 567.271 557.644 567.271 557.644L561.122 552.709C561.122 552.709 556.099 548.669 560.581 543.083L587.043 510.119L592.066 514.159L565.604 547.123L571.753 552.058L594.185 524.117C598.667 518.531 603.701 522.571 603.701 522.571" fill="white"/>
</g>
<defs>
<clipPath id="clip0_486_26065">
<rect width="700" height="700" fill="white"/>
</clipPath>
</defs>
</svg>

<svg xmlns="http://www.w3.org/2000/svg" width="700" height="700" fill="none"><g fill="#fff" clip-path="url(#a)"><path d="m397.194 265.668-67.131 63.611c-4.56 4.316-1.325 11.702 5.111 11.702h68.125a8.41 8.41 0 0 0 5.829-2.33l77.024-72.994h-88.969l.011.011ZM241.105 350l-76.648 72.63c-4.559 4.316-1.325 11.702 5.111 11.702h71.515l87.346-82.775c.596-.563.198-1.557-.619-1.557h-86.705ZM241.105 265.668l-76.648 72.63c-4.559 4.317-1.325 11.702 5.111 11.702h71.515l88.99-84.332h-88.968ZM397.194 434.332l-67.131-63.611c-4.56-4.316-1.325-11.702 5.111-11.702h68.125a8.41 8.41 0 0 1 5.829 2.33l77.024 72.994h-88.969l.011-.011ZM515.793 265.668h-1.104c0 12.674-10.311 22.985-22.984 22.985v1.104c12.673 0 22.984 10.311 22.984 22.984h1.104c0-12.673 10.311-22.984 22.985-22.984v-1.104c-12.674 0-22.985-10.311-22.985-22.985Z"/><path d="M597.486 102.514C531.381 36.409 443.483 0 350 0S168.619 36.409 102.514 102.514C36.409 168.619 0 256.517 0 350s36.409 181.381 102.514 247.486C168.619 663.591 256.517 700 350 700s181.381-36.409 247.486-102.514C663.591 531.381 700 443.483 700 350s-36.409-181.381-102.514-247.486Zm-491.848 3.135C170.915 40.372 257.698 4.427 350 4.427c92.302 0 179.085 35.945 244.351 101.211 64.747 64.747 100.615 150.669 101.189 242.143h-81.969c-.574-69.583-27.919-134.915-77.178-184.185C486.604 113.807 420.411 86.385 350 86.385s-136.604 27.422-186.393 77.211c-49.27 49.27-76.615 114.602-77.178 184.185H4.46c.574-91.474 36.442-177.396 101.189-242.143m503.528 244.351c0 69.229-26.959 134.308-75.908 183.258-48.95 48.949-114.04 75.908-183.258 75.908s-134.308-26.959-183.258-75.908c-48.949-48.95-75.908-114.04-75.908-183.258s26.959-134.308 75.908-183.258c48.95-48.949 114.04-75.908 183.258-75.908s134.308 26.959 183.258 75.908c48.949 48.95 75.908 114.04 75.908 183.258ZM594.362 594.34c-65.266 65.266-152.049 101.211-244.351 101.211-92.302 0-179.085-35.945-244.351-101.211C40.902 529.604 5.023 443.693 4.46 352.219h81.97c.573 69.583 27.918 134.915 77.177 184.185 49.789 49.789 115.982 77.211 186.393 77.211s136.604-27.422 186.393-77.211c49.27-49.27 76.615-114.602 77.178-184.185h81.969c-.574 91.474-36.442 177.396-101.189 242.143"/><path d="m140.965 151.773-5.321 6.756-19.364.265-12.397 15.764 11.823 9.307-4.438 5.63-28.15-22.156 4.426-5.631 11.26 8.865 12.188-15.488-3.499-18.713 5.31-6.756 4.217 22.455 23.945-.298ZM181.58 108.773s4.283 4.825-.85 9.086l-28.692 23.779c-4.968 4.118-9.086-.85-9.086-.85l-18.745-22.62 5.52-4.57 18.745 22.62 27.588-22.863-18.745-22.62 5.519-4.57 18.746 22.619v-.011ZM187.685 70.974l41.111 9.56-12.397-24.254 6.381-3.257 16.316 31.905-6.381 3.257-41.111-9.56 12.397 24.242-6.381 3.268-16.316-31.905 6.381-3.256ZM249.123 44.078l-6.789 2.291 11.456 33.943 6.789-2.291-11.456-33.943ZM321.705 49.204l1.48 8.467s1.115 6.348-5.951 7.584l-42.348 7.419-1.115-6.348 42.348-7.419-1.479-8.467-35.283 6.182c-7.054 1.237-8.169-5.111-8.169-5.111l-1.358-7.761s-1.115-6.348 5.951-7.584l41.641-7.286 1.115 6.347-41.641 7.287 1.358 7.76 35.282-6.182c7.054-1.236 8.169 5.123 8.169 5.123M389.93 36.265l-.552 11.448s-.309 6.447-7.463 6.094l-35.779-1.711-.552 11.448-7.154-.342 1.712-35.78 42.944 2.054c7.153.342 6.844 6.79 6.844 6.79Zm-42.944-2.053-.552 11.448 35.78 1.711.552-11.448-35.78-1.711ZM457.228 52.77l-6.127 22.1s-1.722 6.216-8.633 4.295l-34.532-9.571c-6.9-1.91-5.178-8.125-5.178-8.125l6.127-22.102s1.723-6.215 8.633-4.305l34.532 9.571c6.9 1.921 5.178 8.125 5.178 8.125m-41.432-11.492-6.127 22.101 34.532 9.572 6.127-22.102-34.521-9.57h-.011ZM500.867 107.139l-2.119-14.174-24.586-13.281-5.453 10.09-6.304-3.411 17.034-31.53 37.833 20.435c6.304 3.411 3.235 9.086 3.235 9.086l-5.454 10.09s-3.069 5.674-9.372 2.274l2.119 14.175-6.933-3.742v-.012Zm13.336-26.197-31.529-17.034-5.454 10.09 31.53 17.035 5.453-10.09ZM571.587 125.333l-16.438-13.855-18.944 22.466-5.476-4.615 18.933-22.466-16.438-13.854 4.162-4.935 38.352 32.335-4.151 4.924ZM601.803 184.869l-6.79 5.277s-5.089 3.964-9.494-1.689l-26.407-33.924 5.09-3.964 26.417 33.925 6.779-5.277-22.013-28.272c-4.405-5.653.684-9.616.684-9.616l6.215-4.846s5.09-3.963 9.495 1.689l25.976 33.362-5.09 3.963-25.976-33.362-6.215 4.846 22.013 28.273c4.405 5.652-.684 9.615-.684 9.615ZM109.513 566.895l-5.222-6.833 4.582-18.812-12.177-15.952-11.967 9.13-4.339-5.697 28.483-21.737 4.349 5.697-11.393 8.699 11.945 15.665 18.999 1.27 5.222 6.844-22.797-1.534-5.685 23.26ZM163.044 606.152s-4.029 5.045-9.097.718l-28.327-24.199c-4.902-4.184-.718-9.097-.718-9.097l19.088-22.333 5.453 4.659-19.087 22.333 27.245 23.272 19.088-22.334 5.454 4.648-19.088 22.333h-.011ZM200.292 594.969l15.731 39.169 12.762-24.056 6.326 3.356L218.33 645.1l-6.336-3.367-15.732-39.158-12.75 24.056-6.337-3.356 16.791-31.662 6.326 3.356ZM249.71 618.273l-11.976 33.762 6.753 2.395 11.976-33.762-6.753-2.395ZM316.119 656.029l-1.611 8.446s-1.204 6.336-8.247 4.989l-42.238-8.047 1.204-6.337 42.237 8.048 1.612-8.446-35.194-6.701c-7.043-1.335-5.829-7.672-5.829-7.672l1.479-7.739s1.204-6.337 8.247-4.99l41.531 7.916-1.203 6.336-41.532-7.904-1.479 7.739 35.194 6.701c7.044 1.347 5.829 7.672 5.829 7.672M384.433 641.457l.375 11.459s.21 6.447-6.955 6.679l-35.813 1.17.376 11.459-7.165.232-1.17-35.812 42.977-1.402c7.165-.232 7.375 6.215 7.375 6.215Zm-42.978 1.402.376 11.459 35.812-1.17-.375-11.459-35.813 1.17ZM446.928 626.664l5.796 22.189s1.633 6.238-5.299 8.048l-34.665 9.064c-6.933 1.81-8.567-4.427-8.567-4.427l-5.795-22.19s-1.634-6.237 5.299-8.048l34.664-9.063c6.933-1.81 8.567 4.427 8.567 4.427Zm-41.597 10.874 5.795 22.189 34.665-9.063-5.796-22.19-34.664 9.064ZM513.718 626.929l-12.928-6.193-24.784 12.916 5.299 10.167-6.359 3.312-16.559-31.783 38.131-19.871c6.359-3.312 9.339 2.407 9.339 2.407l5.299 10.167s2.981 5.719-3.378 9.03l12.928 6.194-6.988 3.643v.011Zm-14.208-25.723-31.784 16.56 5.3 10.167 31.783-16.559-5.299-10.168ZM553.637 560.272l-16.648 13.611 18.602 22.742-5.542 4.537-18.602-22.741-16.637 13.612-4.084-5.001 38.826-31.75 4.085 4.99ZM603.712 522.571l6.701 5.388s5.023 4.04.541 9.626l-26.914 33.527-5.034-4.04 26.914-33.527-6.701-5.377-22.432 27.931c-4.482 5.586-9.516 1.545-9.516 1.545l-6.149-4.935s-5.023-4.04-.541-9.626l26.462-32.964 5.023 4.04-26.462 32.964 6.149 4.935 22.432-27.941c4.482-5.586 9.516-1.546 9.516-1.546"/></g><defs><clipPath id="a"><path fill="#fff" d="M0 0h700v700H0z"/></clipPath></defs></svg>
